X:1
T:[ID 1-122]
T:[ID 1-122]
T:Bezeichnung standardisiert: Menuet [mit Trio] Menuet Con Trio \"Ahnlich in dieser Quelle: ID 2-94;
T:Urheber unbekannt Datum in der hier transkribierten schriftlichen Quelle: vermutlich vor 1767
C:Urheber unbekannt
C:Datum in der hier transkribierten schriftlichen Quelle: vermutlich vor 1767
L:1/8
M:none
K:F
V:1 treble 
V:1
 f2 f2 ed | c2 c2 AF | G2 (3GAB (3ABc | TB4 A2 | af d2 c2 | =Bdfa g2 | f2 edc=B | c6 :: g2 g2 eg | %9
 B2 BA B2 | dcBAGf | e2 de c2 | b2 bgaf | ecge f2 | (3GAB AGFE |{E} F6 :| %16
"^Trio" !fermata!c4 (3Bcd | d2 c2 f2 | ed c2 d2 | d2 c2 f2 | f2 e2 gb | afdc=Bc | %22
 (3def edc"^\203*"B | c6 :: g3 egb | a2 ^c2 d2 | f3 dfa | g2 =B2 c2 | _Begabg | e2 dc f2 | dBAGFE | %31
{E} F6 :| %32

